zag2/images/icons/persone.svg

<svg width="18" height="18" viewBox="0 0 18 18" fill="none" xmlns="http://www.w3.org/2000/svg">
<path d="M8.34542 8.80318C10.3467 8.80318 11.9692 6.83254 11.9692 4.40162C11.9692 1.97064 11.4365 0 8.34542 0C5.2543 0 4.7215 1.97064 4.7215 4.40162C4.7215 6.83254 6.34402 8.80318 8.34542 8.80318Z" fill="#FF4900"/>
<path d="M1.50071 16.2739C1.5001 16.1256 1.49948 16.2321 1.50071 16.2739V16.2739Z" fill="#FF4900"/>
<path d="M15.1898 16.3896C15.1917 16.3491 15.1905 16.1081 15.1898 16.3896V16.3896Z" fill="#FF4900"/>
<path d="M15.1821 15.3461C15.1149 11.1114 14.5619 9.90475 10.3297 9.14093C10.3297 9.14093 9.73392 9.90007 8.34535 9.90007C6.95678 9.90007 6.36093 9.14093 6.36093 9.14093C2.1749 9.89642 1.5882 11.0852 1.51106 15.2086C1.50473 15.5453 1.5018 15.563 1.50067 15.5239C1.50093 15.5971 1.50124 15.7326 1.50124 15.9688C1.50124 15.9688 2.50883 18 8.34535 18C14.1818 18 15.1895 15.9688 15.1895 15.9688C15.1895 15.817 15.1896 15.7115 15.1897 15.6397C15.1886 15.6639 15.1863 15.617 15.1821 15.3461Z" fill="#FF4900"/>
</svg>

<svg width="18" height="18" fill="none" xmlns="http://www.w3.org/2000/svg"><path d="M8.345 8.803c2.002 0 3.624-1.97 3.624-4.401S11.437 0 8.345 0c-3.09 0-3.624 1.97-3.624 4.402 0 2.43 1.623 4.401 3.624 4.401zM1.5 16.274c0-.148 0-.042 0 0zm13.69.116c.002-.04 0-.282 0 0zm-.008-1.044c-.067-4.235-.62-5.441-4.852-6.205 0 0-.596.76-1.985.76-1.388 0-1.984-.76-1.984-.76-4.186.755-4.773 1.944-4.85 6.068-.006.336-.01.354-.01.315v.445S2.51 18 8.345 18c5.837 0 6.845-2.031 6.845-2.031v-.33a2.742 2.742 0 01-.008-.293z" fill="#FF4900"/></svg>
